Hatter-kde/actions/16/state-fork.svg

<?xml version="1.0" encoding="UTF-8"?>
<svg viewBox="0 0 16 16" xmlns="http://www.w3.org/2000/svg">
 <defs id="defs3051">
  <style id="current-color-scheme" type="text/css">.ColorScheme-Text {
        color:#363636;
      }</style>
 </defs>
 <path class="ColorScheme-Text" d="m3.5 2a1.5 1.5 0 0 0-1.5 1.5 1.5 1.5 0 0 0 1 1.4121v4.0879 2.0879a1.5 1.5 0 0 0-1 1.4121 1.5 1.5 0 0 0 1.5 1.5 1.5 1.5 0 0 0 1.5-1.5 1.5 1.5 0 0 0-1-1.4121v-2.0879a1 1 0 0 1 1-1h6a2 2 0 0 0 2-2v-1.0879a1.5 1.5 0 0 0 1-1.4121 1.5 1.5 0 0 0-1.5-1.5 1.5 1.5 0 0 0-1.5 1.5 1.5 1.5 0 0 0 1 1.4121v1.0879a1 1 0 0 1-1 1h-6a2 2 0 0 0-1 0.26953v-2.3574a1.5 1.5 0 0 0 1-1.4121 1.5 1.5 0 0 0-1.5-1.5zm0 1a0.5 0.5 0 0 1 0.5 0.5 0.5 0.5 0 0 1-0.5 0.5 0.5 0.5 0 0 1-0.5-0.5 0.5 0.5 0 0 1 0.5-0.5zm9 0a0.5 0.5 0 0 1 0.5 0.5 0.5 0.5 0 0 1-0.5 0.5 0.5 0.5 0 0 1-0.5-0.5 0.5 0.5 0 0 1 0.5-0.5zm-1.5 6v2h-2v1h2v2h1v-2h2v-1h-2v-2h-1zm-7.5 3a0.5 0.5 0 0 1 0.5 0.5 0.5 0.5 0 0 1-0.5 0.5 0.5 0.5 0 0 1-0.5-0.5 0.5 0.5 0 0 1 0.5-0.5z" fill="currentColor"/>
</svg>

<svg xmlns="http://www.w3.org/2000/svg" viewBox="0 0 16 16">
  <defs id="defs3051">
    <style type="text/css" id="current-color-scheme">
      .ColorScheme-Text {
        color:#363636;
      }
      </style>
  </defs>
 <path style="fill:currentColor;fill-opacity:1;stroke:none" 
     d="M 3.5 2 A 1.4999979 1.5 0 0 0 2 3.5 A 1.4999979 1.5 0 0 0 3 4.9121094 L 3 9 L 3 11.087891 A 1.4999979 1.5 0 0 0 2 12.5 A 1.4999979 1.5 0 0 0 3.5 14 A 1.4999979 1.5 0 0 0 5 12.5 A 1.4999979 1.5 0 0 0 4 11.087891 L 4 9 A 1 1 0 0 1 5 8 L 11 8 A 2 2 0 0 0 13 6 L 13 4.9121094 A 1.4999979 1.5 0 0 0 14 3.5 A 1.4999979 1.5 0 0 0 12.5 2 A 1.4999979 1.5 0 0 0 11 3.5 A 1.4999979 1.5 0 0 0 12 4.9121094 L 12 6 A 1 1 0 0 1 11 7 L 5 7 A 2 2 0 0 0 4 7.2695312 L 4 4.9121094 A 1.4999979 1.5 0 0 0 5 3.5 A 1.4999979 1.5 0 0 0 3.5 2 z M 3.5 3 A 0.5 0.5 0 0 1 4 3.5 A 0.5 0.5 0 0 1 3.5 4 A 0.5 0.5 0 0 1 3 3.5 A 0.5 0.5 0 0 1 3.5 3 z M 12.5 3 A 0.5 0.5 0 0 1 13 3.5 A 0.5 0.5 0 0 1 12.5 4 A 0.5 0.5 0 0 1 12 3.5 A 0.5 0.5 0 0 1 12.5 3 z M 11 9 L 11 11 L 9 11 L 9 12 L 11 12 L 11 14 L 12 14 L 12 12 L 14 12 L 14 11 L 12 11 L 12 9 L 11 9 z M 3.5 12 A 0.5 0.5 0 0 1 4 12.5 A 0.5 0.5 0 0 1 3.5 13 A 0.5 0.5 0 0 1 3 12.5 A 0.5 0.5 0 0 1 3.5 12 z "
     class="ColorScheme-Text"
     />
</svg>
